!!!OTL: Die Hauptmannstochter
!!!OTL-incipit:Ein Liedelein wollen wir singen,
!!!ARE: Europa, Mitteleuropa, Deutschland (BRD), Hessen, Nassau
!!!YOR: 5, S. 132
!!    1894 gedruckt in Berlin
!!!SCT: Q0101A
!!!TXL: @@DE
!!!YEM: Copyright 1995, estate of Helmut Schaffrath.
**kern	**text
*ICvox	*
*M6/8	*
*k[f#]	*
*G:	*
{8d	1._Ein
=1	=1
8.bL	Lie-
16a	-de-
8gJ	-lein
8gL	.
8a	wol-
8bJ	-len
=2	=2
8bL	wir
8aJ	singen,
8r	.
4r}	.
{8a	ein
=3	=3
4a	Lied-
8dd	-lein
4dd	vol-
8cc	-ler
=4	=4
4.b	Freud',
4r}	.
{8dd	von
=5	=5
8ddL	ei-
8cc	-ner
16b	ka-
16bJ	-pi-
8bL	-tã-
8a	-ni-
8gJ	-schen
=6	=6
[4.cc	Da-
8ccL]	.
8dd}	-me,
{8eeJ	die
=7	=7
8eeL	hat-
8dd	-te
8bJ	Sol-
8ddL	-da-
8cc	-ten
(16a	so
16ccJ)	.
=8	=8
4.b	lieb.
4r}	.
==	==
!!!AGN: Ballade, Frau in Maennerkleidung, Soldat, Moral, Mord
!!!ONB: ESAC (Essen Associative Code) Database: BALLADE
!!!AMT: compound duple
!!!AIN: vox
!!!EED: Helmut Schaffrath
!!!EEV: 1.0
!!@@COMMENT:Wolfram S. 97 Nr. 71"
!!@@END:
!!!source: Deutsche Volkslieder mit ihren Melodien Balladen. Herausgegeben vom Deutschen Volksliedarchiv. Fünfter Teil. Freiburg/Breisgau 1965.
!!!page: 132
!!!ENC: Anna Maria Matuszewska
!!!EEV: 2025/02/28
*-	*-
